X:63
T:Banks of Tay. JJo8.063
%%VWML:JohnsonVol8-2184-p32-0
F:http://www.vwml.org/record/JohnsonVol8/2184/p32
Z:Transcribed by Simon Furey and Lewis Jones
Z:vmp.Simon Wilson 2013 www.village-music-project.org.uk
Z:Dance added by John Chambers 2017
M:C
L:1/4
%Q:1/2=100
K:D
|:\
F/G/AAA | Ad2e | {g}f2ed | c/d/ee2 |\
F/G/AAA | Ad2e | fdAc | d2D2 ::\
d/e/fff | fd2B | c/d/eee | ec2A |
Bd2B | Ad2A | BAGF | E3E |\
F/G/AAA | Ad2e | {g}f2ed | c/d/ee2 |\
F/G/AAA | Ad2e | fdAc | d2D2 :|
W: First Cu. foot and half Right & Left.
W:the same back again, lead down,
W:up again, cast off and Right and
W:Left.
W:
T:Severn Banks. JJo8.064
B:J.Johnson Choice Collection Vol 8 1758
Z:vmp.Simon Wilson 2013 www.village-music-project.org.uk
Z:Dance added by John Chambers 2017
M:C|
L:1/8
%Q:1/2=80
K:A
|:\
c/B/A AA AEF=G | F2ED C/D/EE2 |\
e/d/c cc defg | aecA G/A/BB2 :|
|:\
G/A/BB2 G/A/BB2 | cAaA G/A/B B>c |\
defg afed | c2BA F/G/AA2 :|
W: First Cu. turn and Right hands single,
W:cast off, turn Left again, and cast
W:up, cross over two Cu. lead to the top
W:and cast off, Set Corners and turn, the
W:other Corners the same, Lead out
W:Sides, and turn it out.
W:
